resources/haticons/SVG/soundcloud2.svg

<!-- Generated by IcoMoon.io -->
<svg version="1.1" xmlns="http://www.w3.org/2000/svg" width="24" height="24" viewBox="0 0 24 24">
<title>soundcloud2</title>
<path d="M21.75 0h-19.5c-1.237 0-2.25 1.013-2.25 2.25v19.5c0 1.237 1.013 2.25 2.25 2.25h19.5c1.237 0 2.25-1.013 2.25-2.25v-19.5c0-1.237-1.013-2.25-2.25-2.25zM4.125 16.5h-0.75l-0.375-2.25 0.375-2.25h0.75l0.375 2.25-0.375 2.25zM7.125 16.5h-0.75l-0.375-3 0.375-3h0.75l0.375 3-0.375 3zM10.125 16.5h-0.75l-0.375-4.5 0.375-4.5h0.75l0.375 4.5-0.375 4.5zM19.341 16.5c-0.047 0-7.059-0.005-7.064-0.005-0.15-0.014-0.272-0.145-0.277-0.3v-8.091c0-0.15 0.052-0.225 0.244-0.3 0.497-0.192 1.055-0.305 1.631-0.305 2.348 0 4.275 1.8 4.481 4.102 0.305-0.127 0.637-0.197 0.984-0.197 1.406 0 2.55 1.144 2.55 2.55s-1.144 2.545-2.55 2.545z"></path>
</svg>

<svg xmlns="http://www.w3.org/2000/svg" width="24" height="24"><path d="M21.75 0H2.25A2.257 2.257 0 0 0 0 2.25v19.5A2.257 2.257 0 0 0 2.25 24h19.5A2.257 2.257 0 0 0 24 21.75V2.25A2.257 2.257 0 0 0 21.75 0zM4.125 16.5h-.75L3 14.25 3.375 12h.75l.375 2.25-.375 2.25zm3 0h-.75L6 13.5l.375-3h.75l.375 3-.375 3zm3 0h-.75L9 12l.375-4.5h.75L10.5 12l-.375 4.5zm9.216 0l-7.064-.005a.313.313 0 0 1-.277-.3V8.104c0-.15.052-.225.244-.3a4.502 4.502 0 0 1 6.112 3.797 2.553 2.553 0 0 1 3.534 2.353 2.549 2.549 0 0 1-2.55 2.545z"/></svg>
